sources/design/Outline/I.svg

<svg:svg xmlns:cc="http://creativecommons.org/ns#" xmlns:dc="http://purl.org/dc/elements/1.1/" xmlns:inkscape="http://www.inkscape.org/namespaces/inkscape" xmlns:rdf="http://www.w3.org/1999/02/22-rdf-syntax-ns#" xmlns:sodipodi="http://sodipodi.sourceforge.net/DTD/sodipodi-0.dtd" xmlns:svg="http://www.w3.org/2000/svg" xml:space="preserve" width="1000" height="1000" version="1.1" style="clip-rule:evenodd;fill-rule:evenodd;image-rendering:optimizeQuality;shape-rendering:geometricPrecision;text-rendering:geometricPrecision" viewBox="0 0 1000 1000" id="svg10" sodipodi:docname="I.svg" inkscape:version="1.1.1 (3bf5ae0d25, 2021-09-20)"><svg:text text-anchor="middle" x="133.84598" y="3.0955563" id="top" inkscape:label="top" style="clip-rule:evenodd;fill-rule:evenodd;image-rendering:optimizeQuality;shape-rendering:geometricPrecision;text-rendering:geometricPrecision">✛</svg:text><svg:metadata id="metadata14"><rdf:RDF><cc:Work rdf:about=""><dc:format>image/svg+xml</dc:format><dc:type rdf:resource="http://purl.org/dc/dcmitype/StillImage" /><dc:title /></cc:Work></rdf:RDF></svg:metadata><sodipodi:namedview pagecolor="#ffffff" bordercolor="#666666" borderopacity="1" objecttolerance="10" gridtolerance="10" guidetolerance="10" inkscape:pageopacity="0" inkscape:pageshadow="2" inkscape:window-width="1920" inkscape:window-height="1009" id="namedview12" showgrid="false" inkscape:zoom="0.84890884" inkscape:cx="156.08272" inkscape:cy="71.85695" inkscape:window-x="0" inkscape:window-y="60" inkscape:window-maximized="1" inkscape:current-layer="svg10" showguides="true" inkscape:guide-bbox="true" inkscape:document-rotation="0" inkscape:pagecheckerboard="0"><sodipodi:guide position="0,1000" orientation="0,1" id="guide16" inkscape:label="" inkscape:locked="true" inkscape:color="rgb(0,0,255)" /><sodipodi:guide position="1763.3122,2036.1693" orientation="1000,0" id="guide18" /><sodipodi:guide position="0,200" orientation="0,1" id="guide20" inkscape:label="base" inkscape:locked="true" inkscape:color="rgb(0,0,255)" /><inkscape:grid type="xygrid" id="grid24" originx="-473.37552" originy="-489.69235" /><sodipodi:guide position="0,0" orientation="0,1" id="guide34" inkscape:label="bottom" inkscape:locked="true" inkscape:color="rgb(0,0,255)" /><sodipodi:guide position="225.05109,1693.3186" orientation="0,1" id="guide44" inkscape:label="" inkscape:locked="false" inkscape:color="rgb(0,0,255)" /><sodipodi:guide position="0,900" orientation="0,1" id="guide46" inkscape:label="" inkscape:locked="true" inkscape:color="rgb(0,0,255)" /><sodipodi:guide position="251.6227,496.39784" orientation="-1,0" id="guide841" inkscape:label="width" inkscape:locked="false" inkscape:color="rgb(0,0,255)" /></sodipodi:namedview>
 <svg:defs id="defs4"><inkscape:path-effect effect="fillet_chamfer" id="path-effect882" is_visible="true" lpeversion="1" satellites_param="F,0,1,1,0,26.393932,0,1 @ F,0,1,1,0,26.393932,0,1 @ F,0,1,1,0,26.393932,0,1 @ F,0,1,1,0,26.393932,0,1" unit="px" method="auto" mode="F" radius="0" chamfer_steps="1" flexible="false" use_knot_distance="true" apply_no_radius="true" apply_with_radius="true" only_selected="true" hide_knots="false" /><inkscape:path-effect effect="fillet_chamfer" id="path-effect878" is_visible="true" lpeversion="1" satellites_param="F,0,1,1,0,23.383709,0,1 @ F,0,1,1,0,23.383709,0,1 @ F,0,1,1,0,23.383709,0,1 @ F,0,1,1,0,23.383709,0,1" unit="px" method="auto" mode="F" radius="0" chamfer_steps="1" flexible="false" use_knot_distance="true" apply_no_radius="true" apply_with_radius="true" only_selected="true" hide_knots="false" /><inkscape:path-effect effect="spiro" id="path-effect875" is_visible="true" lpeversion="1" /><inkscape:path-effect effect="spiro" id="path-effect852" is_visible="true" lpeversion="1" /><inkscape:path-effect effect="fillet_chamfer" id="path-effect850" is_visible="true" lpeversion="1" satellites_param="F,0,0,1,0,23.90859,0,1 @ F,0,0,1,0,0,0,1 @ F,0,0,1,0,0,0,1 @ F,0,0,1,0,16.931698,0,1 @ F,0,0,1,0,21.097281,0,1 @ F,0,0,1,0,0,0,1 @ F,0,0,1,0,0,0,1 @ F,0,0,1,0,0,0,1 @ F,0,0,1,0,15.072277,0,1" unit="px" method="auto" mode="F" radius="0" chamfer_steps="1" flexible="false" use_knot_distance="true" apply_no_radius="true" apply_with_radius="true" only_selected="true" hide_knots="false" /><inkscape:path-effect effect="spiro" id="path-effect889" is_visible="true" lpeversion="1" /><inkscape:path-effect effect="spiro" id="path-effect849" is_visible="true" lpeversion="1" /><inkscape:path-effect effect="spiro" id="path-effect851" is_visible="true" lpeversion="1" />
  <svg:style type="text/css" id="style2">
   
    .fil0 {fill:#EF7F1A;fill-rule:nonzero}
   
  </svg:style>
 <inkscape:path-effect effect="spiro" id="path-effect1214" is_visible="true" lpeversion="1" /><inkscape:path-effect effect="spiro" id="path-effect1195" is_visible="true" lpeversion="1" /><inkscape:path-effect effect="spiro" id="path-effect992" is_visible="true" lpeversion="1" /><inkscape:path-effect effect="spiro" id="path-effect1060" is_visible="true" lpeversion="1" /><inkscape:path-effect effect="spiro" id="path-effect1047" is_visible="true" lpeversion="1" /><inkscape:path-effect effect="spiro" id="path-effect1085" is_visible="true" lpeversion="1" /><inkscape:path-effect effect="spiro" id="path-effect1286" is_visible="true" lpeversion="1" /></svg:defs>

<svg:g id="path847"><svg:path style="color:#000000;clip-rule:nonzero;fill:#1a5fb4;fill-rule:nonzero;stroke-linecap:round;stroke-linejoin:round;-inkscape-stroke:none;paint-order:fill stroke markers;shape-rendering:auto" d="M 180.51367,-24.666016 C 179.00370999999998,-24.725535999999998 177.48313,-24.701976 175.95507999999998,-24.589845999999998 L 81.64843699999999,-17.669923999999998 C 67.130719,-16.604549 52.899087,-9.0841894 44.396484,2.7851563 C 35.893881,14.654502 33.389149,30.107944 36.652344,44.025391 C 41.41552,64.340221 45.214024,84.883236 48.029297,105.55664 C 73.30661599999999,291.17568 16.583378,488.83141 41.091797,691.35352 C 45.170825,725.06003 51.560431,758.47981 60.199219,791.3125 C 66.735851,816.15571 87.374842,830.45834 112.49805,828.87695 L 201.63867,823.26562 C 214.78193,822.43832 230.13282999999998,815.41868 237.88085999999998,801.6425800000001 C 245.62888999999998,787.86647 243.79449,771.71945 238.12695,760.0937500000001 C 230.26672,743.9702100000001 223.34278,727.3871200000001 217.4082,710.4628900000001 C 185.81246,620.3581100000001 182.37655999999998,520.4539800000001 189.56835999999998,421.1386700000001 C 196.76745,321.7226900000001 214.24722999999997,221.1160300000001 220.68945,117.4433600000001 C 222.7243,84.69723600000009 223.61975999999999,51.88232600000009 223.375,19.0742190000001 C 223.20226,-4.080753199999901 203.16316,-23.7732519999999 180.51367,-24.6660159999999 L 180.51367,-24.666016 M 163.20898,36.507812 C 163.07838999999998,62.263323 162.40205,88.016775 160.80469,113.72266 C 154.63538,213.00335 137.21204,313.40689000000003 129.72460999999998,416.80469 C 122.22988999999998,520.30315 125.09769999999999,628.53172 160.78905999999998,730.31641 C 164.88860999999997,742.0075 169.54351999999997,753.48937 174.46289,764.85742 L 116.38085999999998,768.51367 C 109.41092,740.74791 104.09714,712.56172 100.6582,684.14453 C 78.117615,497.88334 135.04562,299.88023 107.48047,97.460937 C 104.91447,78.617997 101.42578,59.916687 97.375,41.337891 L 163.20898,36.507812" id="path13155" /></svg:g> </svg:svg>

<svg:svg xmlns:cc="http://creativecommons.org/ns#" xmlns:dc="http://purl.org/dc/elements/1.1/" xmlns:inkscape="http://www.inkscape.org/namespaces/inkscape" xmlns:rdf="http://www.w3.org/1999/02/22-rdf-syntax-ns#" xmlns:sodipodi="http://sodipodi.sourceforge.net/DTD/sodipodi-0.dtd" xmlns:svg="http://www.w3.org/2000/svg" xml:space="preserve" width="1000" height="1000" version="1.1" style="clip-rule:evenodd;fill-rule:evenodd;image-rendering:optimizeQuality;shape-rendering:geometricPrecision;text-rendering:geometricPrecision" viewBox="0 0 1000 1000" id="svg10" sodipodi:docname="I.svg" inkscape:version="1.1.1 (3bf5ae0d25, 2021-09-20)"><svg:text text-anchor="middle" x="133.84598" y="3.0955563" id="top" inkscape:label="top" style="clip-rule:evenodd;fill-rule:evenodd;image-rendering:optimizeQuality;shape-rendering:geometricPrecision;text-rendering:geometricPrecision">✛</svg:text><svg:metadata id="metadata14"><rdf:RDF><cc:Work rdf:about=""><dc:format>image/svg+xml</dc:format><dc:type rdf:resource="http://purl.org/dc/dcmitype/StillImage" /><dc:title /></cc:Work></rdf:RDF></svg:metadata><sodipodi:namedview pagecolor="#ffffff" bordercolor="#666666" borderopacity="1" objecttolerance="10" gridtolerance="10" guidetolerance="10" inkscape:pageopacity="0" inkscape:pageshadow="2" inkscape:window-width="1920" inkscape:window-height="1009" id="namedview12" showgrid="false" inkscape:zoom="0.84890884" inkscape:cx="156.08272" inkscape:cy="71.85695" inkscape:window-x="0" inkscape:window-y="60" inkscape:window-maximized="1" inkscape:current-layer="svg10" showguides="true" inkscape:guide-bbox="true" inkscape:document-rotation="0" inkscape:pagecheckerboard="0"><sodipodi:guide position="0,1000" orientation="0,1" id="guide16" inkscape:label="" inkscape:locked="true" inkscape:color="rgb(0,0,255)" /><sodipodi:guide position="1763.3122,2036.1693" orientation="1000,0" id="guide18" /><sodipodi:guide position="0,200" orientation="0,1" id="guide20" inkscape:label="base" inkscape:locked="true" inkscape:color="rgb(0,0,255)" /><inkscape:grid type="xygrid" id="grid24" originx="-473.37552" originy="-489.69235" /><sodipodi:guide position="0,0" orientation="0,1" id="guide34" inkscape:label="bottom" inkscape:locked="true" inkscape:color="rgb(0,0,255)" /><sodipodi:guide position="225.05109,1693.3186" orientation="0,1" id="guide44" inkscape:label="" inkscape:locked="false" inkscape:color="rgb(0,0,255)" /><sodipodi:guide position="0,900" orientation="0,1" id="guide46" inkscape:label="" inkscape:locked="true" inkscape:color="rgb(0,0,255)" /><sodipodi:guide position="251.6227,496.39784" orientation="-1,0" id="guide841" inkscape:label="width" inkscape:locked="false" inkscape:color="rgb(0,0,255)" /></sodipodi:namedview>
 <svg:defs id="defs4"><inkscape:path-effect effect="fillet_chamfer" id="path-effect882" is_visible="true" lpeversion="1" satellites_param="F,0,1,1,0,26.393932,0,1 @ F,0,1,1,0,26.393932,0,1 @ F,0,1,1,0,26.393932,0,1 @ F,0,1,1,0,26.393932,0,1" unit="px" method="auto" mode="F" radius="0" chamfer_steps="1" flexible="false" use_knot_distance="true" apply_no_radius="true" apply_with_radius="true" only_selected="true" hide_knots="false" /><inkscape:path-effect effect="fillet_chamfer" id="path-effect878" is_visible="true" lpeversion="1" satellites_param="F,0,1,1,0,23.383709,0,1 @ F,0,1,1,0,23.383709,0,1 @ F,0,1,1,0,23.383709,0,1 @ F,0,1,1,0,23.383709,0,1" unit="px" method="auto" mode="F" radius="0" chamfer_steps="1" flexible="false" use_knot_distance="true" apply_no_radius="true" apply_with_radius="true" only_selected="true" hide_knots="false" /><inkscape:path-effect effect="spiro" id="path-effect875" is_visible="true" lpeversion="1" /><inkscape:path-effect effect="spiro" id="path-effect852" is_visible="true" lpeversion="1" /><inkscape:path-effect effect="fillet_chamfer" id="path-effect850" is_visible="true" lpeversion="1" satellites_param="F,0,0,1,0,23.90859,0,1 @ F,0,0,1,0,0,0,1 @ F,0,0,1,0,0,0,1 @ F,0,0,1,0,16.931698,0,1 @ F,0,0,1,0,21.097281,0,1 @ F,0,0,1,0,0,0,1 @ F,0,0,1,0,0,0,1 @ F,0,0,1,0,0,0,1 @ F,0,0,1,0,15.072277,0,1" unit="px" method="auto" mode="F" radius="0" chamfer_steps="1" flexible="false" use_knot_distance="true" apply_no_radius="true" apply_with_radius="true" only_selected="true" hide_knots="false" /><inkscape:path-effect effect="spiro" id="path-effect889" is_visible="true" lpeversion="1" /><inkscape:path-effect effect="spiro" id="path-effect849" is_visible="true" lpeversion="1" /><inkscape:path-effect effect="spiro" id="path-effect851" is_visible="true" lpeversion="1" />
  <svg:style type="text/css" id="style2">
   
    .fil0 {fill:#EF7F1A;fill-rule:nonzero}
   
  </svg:style>
 <inkscape:path-effect effect="spiro" id="path-effect1214" is_visible="true" lpeversion="1" /><inkscape:path-effect effect="spiro" id="path-effect1195" is_visible="true" lpeversion="1" /><inkscape:path-effect effect="spiro" id="path-effect992" is_visible="true" lpeversion="1" /><inkscape:path-effect effect="spiro" id="path-effect1060" is_visible="true" lpeversion="1" /><inkscape:path-effect effect="spiro" id="path-effect1047" is_visible="true" lpeversion="1" /><inkscape:path-effect effect="spiro" id="path-effect1085" is_visible="true" lpeversion="1" /><inkscape:path-effect effect="spiro" id="path-effect1286" is_visible="true" lpeversion="1" /></svg:defs>

<svg:g id="path847"><svg:path style="color:#000000;clip-rule:nonzero;fill:#1a5fb4;fill-rule:nonzero;stroke-linecap:round;stroke-linejoin:round;-inkscape-stroke:none;shape-rendering:auto" d="m 180.51367,-24.666016 c -1.50996,-0.05952 -3.03054,-0.03596 -4.55859,0.07617 l -94.306643,6.919922 C 67.130719,-16.604549 52.899087,-9.0841894 44.396484,2.7851563 35.893881,14.654502 33.389149,30.107944 36.652344,44.025391 c 4.763176,20.31483 8.56168,40.857845 11.376953,61.531249 25.277319,185.61904 -31.445919,383.27477 -6.9375,585.79688 4.079028,33.70651 10.468634,67.12629 19.107422,99.95898 6.536632,24.84321 27.175623,39.14584 52.298831,37.56445 l 89.14062,-5.61133 c 13.14326,-0.8273 28.49416,-7.84694 36.24219,-21.62304 7.74803,-13.77611 5.91363,-29.92313 0.24609,-41.54883 -7.86023,-16.12354 -14.78417,-32.70663 -20.71875,-49.63086 -31.59574,-90.10478 -35.03164,-190.00891 -27.83984,-289.32422 7.19909,-99.41598 24.67887,-200.02264 31.12109,-303.69531 2.03485,-32.746124 2.93031,-65.561034 2.68555,-98.369141 -0.17274,-23.1549722 -20.21184,-42.847471 -42.86133,-43.740235 z m -17.30469,61.173828 c -0.13059,25.755511 -0.80693,51.508963 -2.40429,77.214848 -6.16931,99.28069 -23.59265,199.68423 -31.08008,303.08203 -7.49472,103.49846 -4.62691,211.72703 31.06445,313.51172 4.09955,11.69109 8.75446,23.17296 13.67383,34.54101 l -58.08203,3.65625 C 109.41092,740.74791 104.09714,712.56172 100.6582,684.14453 78.117615,497.88334 135.04562,299.88023 107.48047,97.460937 104.91447,78.617997 101.42578,59.916687 97.375,41.337891 Z" id="path13119" /></svg:g> </svg:svg>
